; generated by Slic3r 1.2.9 on 2017-05-25 at 00:07:36

; external perimeters extrusion width = 0.45mm
; perimeters extrusion width = 0.45mm
; infill extrusion width = 0.50mm
; solid infill extrusion width = 0.45mm
; top infill extrusion width = 0.45mm
; support material extrusion width = 0.45mm

M107
M190 S70 ; set bed temperature
M104 S220 ; set temperature
G28 ; home all axes
G1 Z5 F5000 ; lift nozzle

M109 S220 ; wait for temperature to be reached
G21 ; set units to millimeters
G90 ; use absolute coordinates
M82 ; use absolute distances for extrusion
G92 E0
G1 Z0.400 F7800.000
G1 E-4.00000 F2400.00000
G92 E0
G1 Z0.500 F7800.000
G1 X38.190 Y50.421 F7800.000
G1 Z0.400 F7800.000
G1 E4.00000 F2400.00000
G1 X38.797 Y49.977 E4.06436 F1200.000
G1 X39.434 Y49.576 E4.12866
G1 X40.098 Y49.222 E4.19303
G1 X40.786 Y48.917 E4.25736
G1 X41.493 Y48.661 E4.32170
G1 X42.218 Y48.456 E4.38606
G1 X42.955 Y48.304 E4.45040
G1 X43.700 Y48.204 E4.51472
G1 X44.721 Y48.154 E4.60207
G1 X69.209 Y48.158 E6.69592
G1 X70.211 Y48.239 E6.78195 F1200.000
G1 X158.045 Y59.838 E14.35735
G1 X158.497 Y59.911 E14.39653
G1 X159.022 Y60.025 E14.44249
G1 X159.638 Y60.202 E14.49728
G1 X160.239 Y60.422 E14.55195
G1 X160.823 Y60.685 E14.60672
G1 X161.386 Y60.989 E14.66147
G1 X162.010 Y61.389 E14.72483
G1 X162.521 Y61.777 E14.77964
G1 X163.002 Y62.199 E14.83439
G1 X163.452 Y62.653 E14.88902
G1 X163.804 Y63.060 E14.93508
G1 X164.237 Y63.637 E14.99675
G1 X164.592 Y64.195 E15.05326
G1 X164.886 Y64.739 E15.10620
G1 X165.119 Y65.247 E15.15399
G1 X165.378 Y65.943 E15.21748
G1 X165.555 Y66.558 E15.27214
G1 X165.670 Y67.084 E15.31819
G1 X165.775 Y67.818 E15.38163
G1 X165.822 Y68.726 E15.45936
G1 X165.817 Y131.538 E20.83011
G1 X165.766 Y132.258 E20.89178
G1 X165.669 Y132.912 E20.94834
G1 X165.535 Y133.516 E21.00129
G1 X165.378 Y134.052 E21.04903
G1 X165.119 Y134.747 E21.11245
G1 X164.895 Y135.237 E21.15853
G1 X164.592 Y135.800 E21.21317
G1 X164.248 Y136.342 E21.26801
G1 X163.817 Y136.919 E21.32959
G1 X163.382 Y137.417 E21.38618
G1 X162.927 Y137.866 E21.44084
G1 X162.520 Y138.219 E21.48691
G1 X162.011 Y138.605 E21.54154
G1 X161.474 Y138.954 E21.59634
G1 X160.914 Y139.264 E21.65107
G1 X160.258 Y139.564 E21.71268
G1 X159.637 Y139.793 E21.76926
G1 X159.023 Y139.970 E21.82392
G1 X158.496 Y140.084 E21.87005
G1 X158.045 Y140.157 E21.90909
G1 X69.888 Y151.798 E29.51237
G1 X68.939 Y151.846 E29.59363
G1 X44.237 Y151.834 E31.70577
G1 X43.487 Y151.773 E31.77013
G1 X42.743 Y151.658 E31.83450
G1 X42.010 Y151.491 E31.89880
G1 X41.290 Y151.271 E31.96317
G1 X40.588 Y151.001 E32.02749
G1 X39.907 Y150.682 E32.09181
G1 X39.250 Y150.314 E32.15617
G1 X38.621 Y149.901 E32.22048
G1 X38.190 Y149.578 E32.26655
G1 X37.616 Y149.092 E32.33087
G1 X36.933 Y148.408 E32.41356
G1 X36.446 Y147.834 E32.47789
G1 X36.081 Y147.343 E32.53018
G1 X35.711 Y146.775 E32.58816
G1 X35.343 Y146.118 E32.65256
G1 X34.941 Y145.238 E32.73532
G1 X34.685 Y144.531 E32.79956
G1 X34.481 Y143.807 E32.86392
G1 X34.328 Y143.070 E32.92822
G1 X34.252 Y142.537 E32.97427
G1 X34.190 Y141.787 E33.03860
G1 X34.178 Y141.304 E33.07994
G1 X34.190 Y58.213 E40.18465
G1 X34.229 Y57.676 E40.23071
G1 X34.328 Y56.930 E40.29503
G1 X34.534 Y55.986 E40.37767
G1 X34.686 Y55.469 E40.42371
G1 X34.941 Y54.761 E40.48804
G1 X35.343 Y53.882 E40.57069
G1 X35.601 Y53.409 E40.61674
G1 X36.001 Y52.773 E40.68105
G1 X36.580 Y51.999 E40.76369
G1 X36.933 Y51.592 E40.80975
G1 X37.460 Y51.054 E40.87407
G1 X38.137 Y50.464 E40.95095
G1 X38.513 Y50.822 F7800.000
G1 X38.914 Y50.521 E40.99386 F1200.000
G1 X39.512 Y50.128 E41.05503
G1 X40.137 Y49.778 E41.11626
G1 X40.785 Y49.474 E41.17745
G1 X41.452 Y49.217 E41.23865
G1 X42.137 Y49.007 E41.29987
G1 X42.835 Y48.848 E41.36108
G1 X43.542 Y48.738 E41.42225
G1 X44.256 Y48.680 E41.48346
G1 X69.190 Y48.672 E43.61549
G1 X70.144 Y48.749 E43.69732 F1200.000
G1 X157.977 Y60.348 E51.27272
G1 X158.895 Y60.523 E51.35262
G1 X159.476 Y60.690 E51.40427
G1 X160.042 Y60.897 E51.45581
G1 X160.593 Y61.145 E51.50743
G1 X161.124 Y61.431 E51.55904
G1 X161.717 Y61.812 E51.61927
G1 X162.198 Y62.177 E51.67094
G1 X162.652 Y62.575 E51.72255
G1 X163.075 Y63.003 E51.77405
G1 X163.404 Y63.383 E51.81697
G1 X163.815 Y63.930 E51.87549
G1 X164.150 Y64.457 E51.92887
G1 X164.426 Y64.969 E51.97867
G1 X164.644 Y65.444 E52.02333
G1 X164.891 Y66.106 E52.08367
G1 X165.057 Y66.685 E52.13520
G1 X165.164 Y67.175 E52.17811
G1 X165.264 Y67.873 E52.23841
G1 X165.308 Y68.726 E52.31143
G1 X165.303 Y131.520 E57.68062
G1 X165.255 Y132.203 E57.73922
G1 X165.163 Y132.821 E57.79257
G1 X165.037 Y133.389 E57.84236
G1 X164.890 Y133.890 E57.88698
G1 X164.644 Y134.550 E57.94726
G1 X164.435 Y135.007 E57.99020
G1 X164.150 Y135.538 E58.04171
G1 X163.826 Y136.048 E58.09341
G1 X163.417 Y136.596 E58.15186
G1 X163.006 Y137.066 E58.20529
G1 X162.577 Y137.490 E58.25683
G1 X162.197 Y137.819 E58.29975
G1 X161.717 Y138.183 E58.35125
G1 X161.211 Y138.512 E58.40291
G1 X160.683 Y138.805 E58.45450
G1 X160.060 Y139.090 E58.51312
G1 X159.475 Y139.305 E58.56641
G1 X158.896 Y139.471 E58.61794
G1 X157.978 Y139.647 E58.69786
G1 X69.833 Y151.287 E66.30008
G1 X68.939 Y151.332 E66.37663
G1 X44.256 Y151.320 E68.48720
G1 X43.542 Y151.261 E68.54843
G1 X42.877 Y151.160 E68.60599
G1 X42.345 Y151.045 E68.65251
G1 X41.656 Y150.851 E68.71371
G1 X40.983 Y150.608 E68.77491
G1 X40.328 Y150.318 E68.83612
G1 X39.696 Y149.981 E68.89733
G1 X39.090 Y149.601 E68.95851
G1 X38.345 Y149.043 E69.03808
G1 X37.810 Y148.569 E69.09922
G1 X37.309 Y148.057 E69.16047
G1 X36.846 Y147.512 E69.22166
G1 X36.524 Y147.079 E69.26781
G1 X36.153 Y146.513 E69.32567
G1 X35.803 Y145.888 E69.38692
G1 X35.416 Y145.041 E69.46654
G1 X35.173 Y144.369 E69.52765
G1 X34.979 Y143.679 E69.58887
G1 X34.834 Y142.979 E69.65003
G1 X34.763 Y142.482 E69.69294
G1 X34.704 Y141.769 E69.75413
G1 X34.692 Y141.304 E69.79390
G1 X34.704 Y58.231 E76.89704
G1 X34.740 Y57.731 E76.93996
G1 X34.834 Y57.021 E77.00115
G1 X35.032 Y56.113 E77.08064
G1 X35.173 Y55.631 E77.12355
G1 X35.416 Y54.958 E77.18474
G1 X35.803 Y54.112 E77.26425
G1 X36.043 Y53.672 E77.30716
G1 X36.423 Y53.066 E77.36834
G1 X36.981 Y52.321 E77.44785
G1 X37.309 Y51.942 E77.49076
G1 X37.810 Y51.431 E77.55194
G1 X38.460 Y50.864 E77.62568
G1 X38.835 Y51.222 F7800.000
G1 X39.208 Y50.943 E77.66546 F1200.000
G1 X39.774 Y50.570 E77.72349
G1 X40.367 Y50.238 E77.78158
G1 X40.981 Y49.949 E77.83963
G1 X41.615 Y49.704 E77.89769
G1 X42.264 Y49.506 E77.95577
G1 X42.926 Y49.354 E78.01384
G1 X43.597 Y49.250 E78.07188
G1 X44.274 Y49.194 E78.12995
G1 X69.172 Y49.186 E80.25885
G1 X70.077 Y49.258 E80.33647 F1200.000
G1 X157.910 Y60.857 E87.91187
G1 X158.768 Y61.022 E87.98657
G1 X159.313 Y61.178 E88.03507
G1 X159.845 Y61.372 E88.08347
G1 X160.362 Y61.605 E88.13196
G1 X160.862 Y61.873 E88.18043
G1 X161.423 Y62.234 E88.23753
G1 X161.876 Y62.577 E88.28605
G1 X162.301 Y62.951 E88.33452
G1 X162.699 Y63.354 E88.38289
G1 X163.004 Y63.705 E88.42266
G1 X163.392 Y64.223 E88.47806
G1 X163.708 Y64.719 E88.52829
G1 X163.967 Y65.200 E88.57495
G1 X164.169 Y65.641 E88.61647
G1 X164.403 Y66.268 E88.67367
G1 X164.559 Y66.812 E88.72207
G1 X164.658 Y67.266 E88.76184
G1 X164.753 Y67.928 E88.81900
G1 X164.794 Y68.726 E88.88731
G1 X164.790 Y131.501 E94.25493
G1 X164.744 Y132.148 E94.31039
G1 X164.657 Y132.729 E94.36060
G1 X164.539 Y133.262 E94.40726
G1 X164.403 Y133.728 E94.44874
G1 X164.169 Y134.354 E94.50589
G1 X163.976 Y134.777 E94.54568
G1 X163.708 Y135.275 E94.59406
G1 X163.404 Y135.755 E94.64261
G1 X163.016 Y136.274 E94.69804
G1 X162.629 Y136.716 E94.74822
G1 X162.227 Y137.114 E94.79662
G1 X161.875 Y137.418 E94.83640
G1 X161.424 Y137.760 E94.88478
G1 X160.949 Y138.070 E94.93329
G1 X160.453 Y138.345 E94.98174
G1 X159.865 Y138.614 E95.03709
G1 X159.313 Y138.817 E95.08737
G1 X158.769 Y138.973 E95.13577
G1 X157.911 Y139.138 E95.21048
G1 X69.778 Y150.776 E102.81164
G1 X68.939 Y150.818 E102.88348
G1 X44.274 Y150.806 E104.99248
G1 X43.597 Y150.750 E105.05056
G1 X42.968 Y150.654 E105.10495
G1 X42.472 Y150.547 E105.14838
G1 X41.818 Y150.363 E105.20644
G1 X41.179 Y150.133 E105.26450
G1 X40.558 Y149.858 E105.32256
G1 X39.959 Y149.539 E105.38064
G1 X39.384 Y149.179 E105.43868
G1 X38.668 Y148.643 E105.51511
G1 X38.160 Y148.193 E105.57311
G1 X37.685 Y147.707 E105.63122
G1 X37.246 Y147.189 E105.68928
G1 X36.947 Y146.786 E105.73220
G1 X36.595 Y146.251 E105.78701
G1 X36.262 Y145.658 E105.84513
G1 X35.891 Y144.844 E105.92159
G1 X35.661 Y144.206 E105.97957
G1 X35.477 Y143.552 E106.03766
G1 X35.340 Y142.888 E106.09568
G1 X35.274 Y142.427 E106.13545
G1 X35.218 Y141.751 E106.19351
G1 X35.206 Y141.304 E106.23171
G1 X35.218 Y58.250 E113.33328
G1 X35.251 Y57.786 E113.37306
G1 X35.340 Y57.112 E113.43111
G1 X35.530 Y56.240 E113.50747
G1 X35.661 Y55.794 E113.54724
G1 X35.891 Y55.155 E113.60529
G1 X36.262 Y54.342 E113.68166
G1 X36.485 Y53.934 E113.72143
G1 X36.846 Y53.359 E113.77947
G1 X37.381 Y52.644 E113.85584
G1 X37.686 Y52.292 E113.89562
G1 X38.160 Y51.807 E113.95366
G1 X38.783 Y51.265 E114.02426
G1 F6240
G1 X39.208 Y50.943 E113.82964
G1 F6240
G1 X39.774 Y50.570 E113.58166
G1 F6240
G1 X40.367 Y50.238 E113.33343
G1 F6240
G1 X40.981 Y49.949 E113.08535
G1 F6240
G1 X41.615 Y49.704 E112.83724
G1 F6240
G1 X42.264 Y49.506 E112.58904
G1 F6240
G1 X42.926 Y49.354 E112.34089
G1 F6240
G1 X43.597 Y49.250 E112.09288
G1 F6240
G1 X44.274 Y49.194 E111.84474
G1 F6240
G1 X48.709 Y49.192 E110.22426
G1 E110.02426 F2400.00000
G92 E0
G1 Z0.500 F7800.000
G1 X46.027 Y140.074 F7800.000
G1 Z0.400 F7800.000
G1 E4.00000 F2400.00000
G1 X46.285 Y140.415 E4.03654 F1200.000
G1 X46.421 Y140.682 E4.06217
G1 X46.542 Y141.089 E4.09847
G1 X46.575 Y141.451 E4.12956
G1 X46.542 Y141.813 E4.16065
G1 X46.419 Y142.225 E4.19743
G1 X46.212 Y142.599 E4.23397
G1 X46.023 Y142.831 E4.25956
G1 X45.711 Y143.097 E4.29464
G1 X45.442 Y143.254 E4.32123
G1 X45.039 Y143.398 E4.35783
G1 X44.610 Y143.452 E4.39484
G1 X44.179 Y143.413 E4.43179
G1 X43.796 Y143.294 E4.46611
G1 X43.508 Y143.145 E4.49389
G1 X43.171 Y142.879 E4.53056
G1 X42.897 Y142.545 E4.56750
G1 X42.714 Y142.188 E4.60182
G1 X42.618 Y141.877 E4.62960
G1 X42.572 Y141.451 E4.66627
G1 X42.619 Y141.021 E4.70328
G1 X42.756 Y140.611 E4.74023
G1 X42.962 Y140.266 E4.77455
G1 X43.170 Y140.024 E4.80186
G1 X43.396 Y139.833 E4.82714
G1 X43.766 Y139.619 E4.86369
G1 X44.178 Y139.489 E4.90063
G1 X44.577 Y139.451 E4.93495 F1200.000
G1 X44.901 Y139.477 E4.96273
G1 X45.314 Y139.591 E4.99940
G1 X45.697 Y139.794 E5.03641
G1 X45.975 Y140.031 E5.06765
G1 X46.446 Y139.990 F7800.000
G1 F6240
G1 X46.285 Y140.415 E4.88733
G1 F6240
G1 X46.421 Y140.682 E4.77784
G1 F6240
G1 X46.542 Y141.089 E4.62268
G1 F6240
G1 X46.575 Y141.451 E4.48984
G1 F6240
G1 X46.542 Y141.813 E4.35700
G1 F6240
G1 X46.419 Y142.225 E4.19984
G1 F6240
G1 X46.212 Y142.599 E4.04367
G1 F6240
G1 X46.023 Y142.831 E3.93431
G1 F6240
G1 X45.711 Y143.097 E3.78443
G1 F6240
G1 X45.442 Y143.254 E3.67081
G1 F6240
G1 X45.039 Y143.398 E3.51439
G1 F6240
G1 X44.610 Y143.452 E3.35623
G1 F6240
G1 X44.179 Y143.413 E3.19836
G1 F6240
G1 X43.796 Y143.294 E3.05169
G1 F6240
G1 X43.508 Y143.145 E2.93299
G1 F6240
G1 X43.171 Y142.879 E2.77628
G1 F6240
G1 X42.897 Y142.545 E2.61841
G1 F6240
G1 X42.714 Y142.188 E2.47174
G1 F6240
G1 X42.618 Y141.877 E2.35304
G1 F6240
G1 X42.572 Y141.451 E2.19634
G1 F6240
G1 X42.619 Y141.021 E2.03818
G1 F6240
G1 X42.756 Y140.611 E1.88031
G1 F6240
G1 X42.962 Y140.266 E1.73363
G1 F6240
G1 X43.170 Y140.024 E1.61693
G1 F6240
G1 X43.396 Y139.833 E1.50890
G1 F6240
G1 X43.766 Y139.619 E1.35273
G1 F6240
G1 X43.988 Y139.549 E1.26765
G1 E1.06765 F2400.00000
G92 E0
G1 Z0.500 F7800.000
G1 X66.584 Y141.451 F7800.000
G1 Z0.400 F7800.000
G1 E4.00000 F2400.00000
G1 X66.631 Y141.021 E4.03701 F1200.000
G1 X66.769 Y140.611 E4.07396
G1 X66.974 Y140.266 E4.10828
G1 X67.183 Y140.024 E4.13559
G1 X67.408 Y139.833 E4.16087
G1 X67.778 Y139.619 E4.19742
G1 X68.190 Y139.489 E4.23436
G1 X68.590 Y139.451 E4.26868 F1200.000
G1 X68.914 Y139.477 E4.29646
G1 X69.327 Y139.591 E4.33313
G1 X69.709 Y139.794 E4.37014
G1 X70.039 Y140.074 E4.40715
G1 X70.298 Y140.415 E4.44370
G1 X70.433 Y140.682 E4.46932
G1 X70.554 Y141.089 E4.50563
G1 X70.587 Y141.451 E4.53672
G1 X70.554 Y141.813 E4.56780
G1 X70.432 Y142.225 E4.60458
G1 X70.225 Y142.599 E4.64112
G1 X70.035 Y142.831 E4.66672
G1 X69.723 Y143.097 E4.70179
G1 X69.455 Y143.254 E4.72838
G1 X69.052 Y143.398 E4.76498
G1 X68.622 Y143.452 E4.80200
G1 X68.192 Y143.413 E4.83894
G1 X67.809 Y143.294 E4.87326
G1 X67.520 Y143.145 E4.90104
G1 X67.183 Y142.879 E4.93771
G1 X66.910 Y142.545 E4.97466
G1 X66.726 Y142.188 E5.00898
G1 X66.631 Y141.877 E5.03676
G1 X66.592 Y141.518 E5.06765
G1 X66.217 Y141.221 F7800.000
G1 X65.625 Y142.414 F7800.000
G1 X51.991 Y142.414 E6.23335 F1200.000
G1 X51.605 Y142.387 E6.26644
G1 X51.199 Y142.298 E6.30202
G1 X50.809 Y142.153 E6.33759
G1 X50.444 Y141.953 E6.37317
G1 X50.111 Y141.704 E6.40871
G1 X49.812 Y141.406 E6.44482
G1 X49.467 Y140.912 E6.49633
G1 X49.288 Y140.519 E6.53324
G1 X49.167 Y140.106 E6.57007
G1 X49.106 Y139.544 E6.61842
G1 X49.106 Y60.456 E13.38078
G1 X49.167 Y59.894 E13.42913
G1 X49.292 Y59.467 E13.46721
G1 X49.565 Y58.922 E13.51931
G1 X49.957 Y58.436 E13.57267
G1 X50.442 Y58.045 E13.62603
G1 X51.000 Y57.765 E13.67934
G1 X51.582 Y57.616 E13.73071
G1 X51.990 Y57.586 E13.76573
G1 X65.625 Y57.586 E14.93152
G1 X65.665 Y58.867 E15.04114
G1 X65.691 Y59.047 E15.05663
G1 X65.797 Y59.469 E15.09383
G1 X65.957 Y59.857 E15.12977
G1 X66.171 Y60.219 E15.16572
G1 X66.434 Y60.547 E15.20167
G1 X66.741 Y60.834 E15.23761
G1 X67.086 Y61.074 E15.27356
G1 X67.462 Y61.262 E15.30950
G1 X67.861 Y61.395 E15.34545
G1 X68.275 Y61.469 E15.38139
G1 X68.695 Y61.484 E15.41734
G1 X69.113 Y61.438 E15.45329
G1 X69.519 Y61.334 E15.48914
G1 X69.918 Y61.166 E15.52620
G1 X70.281 Y60.948 E15.56234
G1 X70.426 Y60.839 E15.57786
G1 X71.361 Y59.962 E15.68748
G1 X80.590 Y69.191 E16.80346
G1 X152.465 Y69.191 E22.94913
G1 X152.506 Y70.473 E23.05881
G1 X152.531 Y70.653 E23.07433
G1 X152.642 Y71.089 E23.11284
G1 X152.704 Y71.259 E23.12827
G1 X152.906 Y71.660 E23.16663
G1 X153.147 Y72.007 E23.20283
G1 X153.423 Y72.302 E23.23738
G1 X153.765 Y72.577 E23.27486
G1 X153.918 Y72.675 E23.29041
G1 X154.308 Y72.869 E23.32767
G1 X154.722 Y73.006 E23.36492
G1 X154.899 Y73.044 E23.38044
G1 X155.347 Y73.091 E23.41895
G1 X156.390 Y73.087 E23.50810
G1 X156.390 Y126.906 E28.10988
G1 X155.335 Y126.905 E28.20003
G1 X154.914 Y126.949 E28.23625
G1 X154.491 Y127.056 E28.27354
G1 X154.321 Y127.119 E28.28906
G1 X153.918 Y127.320 E28.32757
G1 X153.754 Y127.425 E28.34422
G1 X153.587 Y127.551 E28.36211
G1 X153.277 Y127.840 E28.39833
G1 X153.004 Y128.180 E28.43562
G1 X152.906 Y128.332 E28.45105
G1 X152.707 Y128.734 E28.48942
G1 X152.575 Y129.136 E28.52562
G1 X152.506 Y129.522 E28.55917
G1 X152.465 Y130.804 E28.66885
G1 X80.595 Y130.804 E34.81409
G1 X71.361 Y140.038 E35.93067
G1 X70.437 Y139.171 E36.03904
G1 X70.080 Y138.922 E36.07624
G1 X69.921 Y138.834 E36.09173
G1 X69.520 Y138.667 E36.12893
G1 X69.113 Y138.562 E36.16487
G1 X68.695 Y138.516 E36.20082
G1 X68.275 Y138.531 E36.23676
G1 X67.861 Y138.605 E36.27271
G1 X67.462 Y138.738 E36.30866
G1 X67.086 Y138.926 E36.34460
G1 X66.742 Y139.165 E36.38046
G1 X66.426 Y139.462 E36.41751
G1 X66.162 Y139.792 E36.45365
G1 X66.064 Y139.945 E36.46918
G1 X65.870 Y140.334 E36.50638
G1 X65.738 Y140.733 E36.54232
G1 X65.665 Y141.147 E36.57827
G1 X65.627 Y142.347 E36.68087
G1 X65.127 Y141.900 F7800.000
G1 X52.010 Y141.900 E37.80241 F1200.000
G1 X51.679 Y141.876 E37.83078
G1 X51.344 Y141.804 E37.86007
G1 X51.023 Y141.684 E37.88936
G1 X50.723 Y141.520 E37.91865
G1 X50.448 Y141.314 E37.94793
G1 X50.208 Y141.074 E37.97701
G1 X49.916 Y140.656 E38.02063
G1 X49.771 Y140.339 E38.05041
G1 X49.673 Y140.005 E38.08016
G1 X49.621 Y139.516 E38.12222
G1 X49.621 Y60.484 E44.87987
G1 X49.673 Y59.995 E44.92193
G1 X49.773 Y59.656 E44.95214
G1 X50.000 Y59.202 E44.99558
G1 X50.322 Y58.802 E45.03948
G1 X50.722 Y58.480 E45.08339
G1 X51.181 Y58.250 E45.12727
G1 X51.666 Y58.125 E45.17004
G1 X52.009 Y58.100 E45.19953
G1 X65.127 Y58.100 E46.32111
G1 X65.152 Y58.911 E46.39051
G1 X65.185 Y59.145 E46.41073
