; generated by Slic3r 1.2.9 on 2017-05-19 at 21:30:29

; external perimeters extrusion width = 0.45mm
; perimeters extrusion width = 0.45mm
; infill extrusion width = 0.50mm
; solid infill extrusion width = 0.45mm
; top infill extrusion width = 0.45mm
; support material extrusion width = 0.45mm

M107
M190 S65 ; set bed temperature
M104 S220 ; set temperature
G28 ; home all axes
G1 Z5 F5000 ; lift nozzle

M109 S220 ; wait for temperature to be reached
G21 ; set units to millimeters
G90 ; use absolute coordinates
M82 ; use absolute distances for extrusion
G92 E0
G1 Z0.300 F7800.000
G1 E-2.00000 F2400.00000
G92 E0
G1 X39.040 Y61.907 F7800.000
G1 E2.00000 F2400.00000
G1 X39.628 Y61.586 E2.04476 F1500.000
G1 X40.052 Y61.392 E2.07594
G1 X40.583 Y61.190 E2.11388
G1 X41.227 Y61.001 E2.15866
G1 X42.087 Y60.836 E2.21719
G1 X130.077 Y49.218 E8.14644
G1 X130.685 Y49.170 E8.18715
G1 X131.061 Y49.160 E8.21227
G1 X155.512 Y49.165 E9.84578
G1 X156.405 Y49.228 E9.90557 F1500.000
G1 X157.077 Y49.333 E9.95102
G1 X157.533 Y49.432 E9.98218
G1 X158.189 Y49.616 E10.02767
G1 X159.027 Y49.929 E10.08743
G1 X159.643 Y50.219 E10.13289
G1 X160.052 Y50.442 E10.16409
G1 X160.629 Y50.804 E10.20953
G1 X161.345 Y51.340 E10.26930
G1 X161.698 Y51.645 E10.30047
G1 X162.184 Y52.121 E10.34592
G1 X162.770 Y52.797 E10.40571
G1 X163.172 Y53.347 E10.45116
G1 X163.424 Y53.739 E10.48232
G1 X163.853 Y54.524 E10.54209
G1 X164.129 Y55.147 E10.58758
G1 X164.359 Y55.787 E10.63301
G1 X164.491 Y56.234 E10.66419
G1 X164.643 Y56.898 E10.70967
G1 X164.770 Y57.783 E10.76940
G1 X164.815 Y58.696 E10.83047
G1 X164.815 Y141.304 E16.34913
G1 X164.770 Y142.217 E16.41017
G1 X164.681 Y142.891 E16.45565
G1 X164.491 Y143.765 E16.51538
G1 X164.291 Y144.417 E16.56091
G1 X164.129 Y144.852 E16.59197
G1 X163.854 Y145.473 E16.63731
G1 X163.533 Y146.077 E16.68297
G1 X163.172 Y146.654 E16.72846
G1 X162.644 Y147.359 E16.78730
G1 X162.184 Y147.879 E16.83367
G1 X161.697 Y148.355 E16.87915
G1 X161.286 Y148.708 E16.91538
G1 X160.805 Y149.074 E16.95576
G1 X160.237 Y149.448 E17.00123
G1 X159.643 Y149.781 E17.04672
G1 X158.997 Y150.083 E17.09431
G1 X158.189 Y150.384 E17.15194
G1 X157.533 Y150.568 E17.19741
G1 X157.078 Y150.667 E17.22858
G1 X156.405 Y150.772 E17.27404
G1 X155.727 Y150.828 E17.31952
G1 X155.280 Y150.840 E17.34941
G1 X131.061 Y150.840 E18.96736
G1 X130.685 Y150.830 E18.99248
G1 X130.077 Y150.782 E19.03319
G1 X42.087 Y139.159 E24.96250
G1 X41.683 Y139.093 E24.98984
G1 X41.128 Y138.969 E25.02785
G1 X40.584 Y138.805 E25.06579
G1 X40.052 Y138.603 E25.10378
G1 X39.537 Y138.364 E25.14171
G1 X39.040 Y138.089 E25.17966
G1 X38.647 Y137.836 E25.21090
G1 X38.191 Y137.499 E25.24878
G1 X37.684 Y137.060 E25.29355
G1 X37.354 Y136.730 E25.32472
G1 X36.980 Y136.303 E25.36265
G1 X36.579 Y135.767 E25.40740
G1 X36.326 Y135.374 E25.43859
G1 X36.051 Y134.878 E25.47651
G1 X35.772 Y134.268 E25.52129
G1 X35.609 Y133.831 E25.55249
G1 X35.446 Y133.288 E25.59037
G1 X35.303 Y132.632 E25.63520
G1 X35.235 Y132.155 E25.66739
G1 X35.193 Y131.605 E25.70427
G1 X35.185 Y68.726 E29.90490
G1 X35.237 Y67.825 E29.96521
G1 X35.321 Y67.263 E30.00317
G1 X35.446 Y66.708 E30.04116
G1 X35.609 Y66.164 E30.07908
G1 X35.778 Y65.713 E30.11128
G1 X36.005 Y65.209 E30.14822
G1 X36.274 Y64.708 E30.18617
G1 X36.636 Y64.144 E30.23096
G1 X36.980 Y63.692 E30.26889
G1 X37.355 Y63.265 E30.30688
G1 X37.759 Y62.866 E30.34481
G1 X38.111 Y62.560 E30.37597
G1 X38.564 Y62.217 E30.41395
G1 X38.977 Y61.947 E30.44687
G1 E28.44687 F2400.00000
G92 E0
G1 X129.870 Y140.522 F7800.000
G1 E2.00000 F2400.00000
G1 X130.103 Y140.216 E2.02566 F1500.000
G1 X130.303 Y140.034 E2.04375
G1 X130.628 Y139.830 E2.06942
G1 X130.991 Y139.700 E2.09516
G1 X131.275 Y139.656 E2.11436 F1500.000
G1 X131.642 Y139.664 E2.13887
G1 X132.016 Y139.753 E2.16457
G1 X132.278 Y139.871 E2.18378
G1 X132.581 Y140.078 E2.20828
G1 X132.848 Y140.361 E2.23427
G1 X133.047 Y140.691 E2.26001
G1 X133.147 Y140.960 E2.27921
G1 X133.211 Y141.322 E2.30372
G1 X133.197 Y141.710 E2.32971
G1 X133.101 Y142.082 E2.35537
G1 X132.987 Y142.328 E2.37346
G1 X132.766 Y142.642 E2.39912
G1 X132.482 Y142.902 E2.42486
G1 X132.237 Y143.053 E2.44407
G1 X131.895 Y143.187 E2.46858
G1 X131.512 Y143.250 E2.49456
G1 X131.123 Y143.229 E2.52059
G1 X130.751 Y143.126 E2.54633
G1 X130.493 Y142.999 E2.56554
G1 X130.198 Y142.781 E2.59004
G1 X129.941 Y142.489 E2.61603
G1 X129.755 Y142.152 E2.64177
G1 X129.665 Y141.879 E2.66098
G1 X129.614 Y141.520 E2.68519
G1 X129.627 Y141.233 E2.70436
G1 X129.707 Y140.875 E2.72887
G1 X129.839 Y140.590 E2.74985
G1 X129.696 Y140.179 F7800.000
G1 E0.74985 F2400.00000
G92 E0
G1 X153.626 Y141.516 F7800.000
G1 E2.00000 F2400.00000
G1 X153.654 Y141.133 E2.02566 F1500.000
G1 X153.721 Y140.871 E2.04375
G1 X153.883 Y140.522 E2.06942
G1 X154.115 Y140.216 E2.09508
G1 X154.315 Y140.034 E2.11317
G1 X154.641 Y139.830 E2.13883
G1 X155.003 Y139.700 E2.16457
G1 X155.287 Y139.656 E2.18378 F1500.000
G1 X155.654 Y139.664 E2.20828
G1 X156.028 Y139.753 E2.23398
G1 X156.291 Y139.871 E2.25319
G1 X156.593 Y140.078 E2.27769
G1 X156.861 Y140.361 E2.30368
G1 X157.060 Y140.691 E2.32942
G1 X157.159 Y140.960 E2.34863
G1 X157.224 Y141.322 E2.37314
G1 X157.210 Y141.706 E2.39883
G1 X157.146 Y141.986 E2.41804
G1 X157.003 Y142.324 E2.44255
G1 X156.778 Y142.642 E2.46854
G1 X156.494 Y142.902 E2.49428
G1 X156.249 Y143.053 E2.51348
G1 X155.908 Y143.187 E2.53799
G1 X155.524 Y143.250 E2.56398
G1 X155.135 Y143.229 E2.59000
G1 X154.764 Y143.126 E2.61575
G1 X154.506 Y142.999 E2.63495
G1 X154.211 Y142.781 E2.65946
G1 X153.957 Y142.492 E2.68516
G1 X153.810 Y142.245 E2.70436
G1 X153.682 Y141.901 E2.72887
G1 X153.637 Y141.590 E2.74985
G1 X153.293 Y141.324 F7800.000
G1 X155.524 Y60.348 F7800.000
G1 X155.139 Y60.327 E2.77559 F1500.000
G1 X154.860 Y60.258 E2.79479
G1 X154.525 Y60.109 E2.81930
G1 X154.211 Y59.879 E2.84529
G1 X153.957 Y59.590 E2.87103
G1 X153.810 Y59.343 E2.89023
G1 X153.682 Y58.999 E2.91474
G1 X153.626 Y58.614 E2.94073
G1 X153.654 Y58.231 E2.96639
G1 X153.721 Y57.969 E2.98448
G1 X153.883 Y57.620 E3.01014
G1 X154.118 Y57.310 E3.03617
G1 X154.411 Y57.061 E3.06183
G1 X154.646 Y56.926 E3.07992
G1 X155.003 Y56.798 E3.10530
G1 X155.287 Y56.754 E3.12451 F1500.000
G1 X155.654 Y56.762 E3.14901
G1 X156.033 Y56.852 E3.17500
G1 X156.378 Y57.020 E3.20066
G1 X156.597 Y57.180 E3.21875
G1 X156.858 Y57.455 E3.24412
G1 X157.013 Y57.697 E3.26333
G1 X157.154 Y58.036 E3.28784
G1 X157.224 Y58.419 E3.31383
G1 X157.210 Y58.804 E3.33956
G1 X157.146 Y59.084 E3.35877
G1 X157.003 Y59.422 E3.38328
G1 X156.778 Y59.740 E3.40927
G1 X156.494 Y60.000 E3.43501
G1 X156.249 Y60.151 E3.45421
G1 X155.908 Y60.285 E3.47872
G1 X155.598 Y60.336 E3.49970
G1 X155.337 Y60.685 F7800.000
G1 X156.908 Y61.042 F7800.000
G1 X156.908 Y138.974 E8.70598 F1500.000
G1 X156.376 Y138.735 E8.74499
G1 X155.792 Y138.595 E8.78509
G1 X155.216 Y138.583 E8.82358
G1 X154.738 Y138.657 E8.85588
G1 X154.171 Y138.860 E8.89615
G1 X153.664 Y139.177 E8.93608
G1 X153.321 Y139.491 E8.96712
G1 X152.959 Y139.967 E9.00704
G1 X152.708 Y140.509 E9.04697
G1 X152.592 Y140.959 E9.07802
G1 X152.549 Y141.555 E9.11794
G1 X152.638 Y142.168 E9.15936
G1 X152.924 Y142.933 E9.21386
G1 X133.888 Y142.933 E10.48555
G1 X134.114 Y142.444 E10.52152
G1 X134.263 Y141.865 E10.56145
G1 X134.286 Y141.246 E10.60287
G1 X134.184 Y140.679 E10.64136
G1 X134.017 Y140.225 E10.67366
G1 X133.706 Y139.709 E10.71393
G1 X133.280 Y139.258 E10.75535
G1 X132.804 Y138.933 E10.79384
G1 X132.363 Y138.735 E10.82615
G1 X131.779 Y138.595 E10.86624
G1 X131.203 Y138.583 E10.90473
G1 X130.726 Y138.657 E10.93703
G1 X130.158 Y138.860 E10.97731
G1 X129.652 Y139.177 E11.01723
G1 X129.309 Y139.491 E11.04828
G1 X128.947 Y139.967 E11.08820
G1 X128.595 Y140.727 E11.14421
G1 X123.147 Y135.279 E11.65893
G1 X122.456 Y134.636 E11.72200
G1 X121.702 Y134.028 E11.78670
G1 X120.906 Y133.476 E11.85141
G1 X120.073 Y132.982 E11.91611
G1 X119.207 Y132.548 E11.98082
G1 X118.312 Y132.177 E12.04552
G1 X117.393 Y131.871 E12.11023
G1 X116.455 Y131.632 E12.17493
G1 X115.501 Y131.460 E12.23964
G1 X114.538 Y131.356 E12.30434
G1 X113.595 Y131.323 E12.36741
G1 X47.056 Y131.323 E16.81258
G1 X47.324 Y130.684 E16.85883
G1 X47.424 Y130.230 E16.88988
G1 X47.445 Y129.633 E16.92980
G1 X47.338 Y129.045 E16.96972
G1 X47.174 Y128.611 E17.00077
G1 X46.866 Y128.099 E17.04069
G1 X46.455 Y127.665 E17.08062
G1 X46.080 Y127.390 E17.11166
G1 X45.542 Y127.129 E17.15159
G1 X44.939 Y126.985 E17.19300
G1 X44.363 Y126.973 E17.23150
G1 X43.885 Y127.047 E17.26380
G1 X43.341 Y127.242 E17.30240
G1 X43.092 Y127.386 E17.32163
G1 X43.092 Y72.629 E20.97967
G1 X43.681 Y72.889 E21.02267
G1 X44.133 Y72.997 E21.05371
G1 X44.729 Y73.029 E21.09364
G1 X45.344 Y72.928 E21.13523
G1 X45.899 Y72.707 E21.17516
G1 X46.293 Y72.460 E21.20620
G1 X46.734 Y72.057 E21.24613
G1 X47.093 Y71.548 E21.28772
G1 X47.324 Y70.997 E21.32764
G1 X47.424 Y70.543 E21.35869
G1 X47.445 Y69.946 E21.39862
G1 X47.338 Y69.358 E21.43854
G1 X47.174 Y68.924 E21.46959
G1 X47.023 Y68.672 E21.48918
G1 X113.600 Y68.672 E25.93691
G1 X114.543 Y68.639 E25.99998
G1 X115.506 Y68.535 E26.06468
G1 X116.460 Y68.363 E26.12939
G1 X117.398 Y68.124 E26.19409
G1 X118.317 Y67.818 E26.25880
G1 X119.212 Y67.447 E26.32350
G1 X120.078 Y67.013 E26.38821
G1 X120.911 Y66.519 E26.45291
G1 X121.707 Y65.967 E26.51762
G1 X122.461 Y65.359 E26.58232
G1 X123.152 Y64.716 E26.64539
G1 X128.625 Y59.243 E27.16247
G1 X128.768 Y59.680 E27.19323
G1 X129.060 Y60.208 E27.23350
G1 X129.472 Y60.675 E27.27509
G1 X129.972 Y61.041 E27.31651
G1 X130.499 Y61.275 E27.35500
G1 X130.968 Y61.391 E27.38731
G1 X131.570 Y61.424 E27.42758
G1 X132.182 Y61.324 E27.46900
G1 X132.718 Y61.113 E27.50749
G1 X133.129 Y60.859 E27.53979
G1 X133.573 Y60.454 E27.57989
G1 X133.906 Y59.984 E27.61838
G1 X134.113 Y59.547 E27.65068
G1 X134.263 Y58.963 E27.69095
G1 X134.286 Y58.341 E27.73255
G1 X134.174 Y57.731 E27.77397
G1 X133.899 Y57.067 E27.82199
G1 X152.958 Y57.068 E29.09521
G1 X152.708 Y57.607 E29.13486
G1 X152.592 Y58.057 E29.16591
G1 X152.549 Y58.653 E29.20584
G1 X152.638 Y59.266 E29.24725
G1 X152.840 Y59.806 E29.28574
G1 X153.086 Y60.222 E29.31805
G1 X153.484 Y60.675 E29.35832
G1 X153.985 Y61.041 E29.39974
G1 X154.511 Y61.275 E29.43823
G1 X154.980 Y61.391 E29.47053
G1 X155.582 Y61.424 E29.51080
G1 X156.194 Y61.324 E29.55222
G1 X156.838 Y61.070 E29.59848
G1 X157.444 Y59.858 F7800.000
G1 X157.444 Y140.197 E34.96561 F1500.000
G1 X156.943 Y139.668 E35.01428
G1 X156.554 Y139.402 E35.04578
G1 X156.202 Y139.244 E35.07153
G1 X155.723 Y139.129 E35.10443
G1 X155.252 Y139.119 E35.13593
G1 X154.871 Y139.179 E35.16168
G1 X154.406 Y139.345 E35.19469
G1 X153.990 Y139.605 E35.22748
G1 X153.718 Y139.854 E35.25205
G1 X153.421 Y140.244 E35.28484
G1 X153.215 Y140.690 E35.31764
G1 X153.123 Y141.046 E35.34221
G1 X153.087 Y141.536 E35.37500
G1 X153.160 Y142.035 E35.40870
G1 X153.325 Y142.476 E35.44020
G1 X153.521 Y142.808 E35.46596
G1 X153.847 Y143.178 E35.49885
G1 X153.941 Y143.247 E35.50669
G1 X153.868 Y143.468 E35.52223
G1 X132.656 Y143.468 E36.93937
G1 X133.170 Y142.998 E36.98594
G1 X133.453 Y142.597 E37.01873
G1 X133.607 Y142.263 E37.04330
G1 X133.730 Y141.788 E37.07609
G1 X133.748 Y141.284 E37.10980
G1 X133.665 Y140.820 E37.14129
G1 X133.532 Y140.458 E37.16705
G1 X133.277 Y140.035 E37.20005
G1 X132.930 Y139.668 E37.23376
G1 X132.541 Y139.402 E37.26526
G1 X132.190 Y139.244 E37.29101
G1 X131.711 Y139.129 E37.32391
G1 X131.239 Y139.119 E37.35541
G1 X130.858 Y139.179 E37.38116
G1 X130.393 Y139.345 E37.41417
G1 X129.977 Y139.605 E37.44696
G1 X129.706 Y139.854 E37.47153
G1 X129.408 Y140.244 E37.50432
G1 X129.197 Y140.702 E37.53803
G1 X129.094 Y141.162 E37.56953
G1 X129.077 Y141.546 E37.59517
G1 X129.095 Y141.675 E37.60386
G1 X128.888 Y141.778 E37.61932
G1 X122.775 Y135.665 E38.19688
G1 X122.105 Y135.041 E38.25803
G1 X121.380 Y134.457 E38.32018
G1 X120.616 Y133.927 E38.38233
G1 X119.816 Y133.452 E38.44448
G1 X118.984 Y133.036 E38.50662
G1 X118.125 Y132.680 E38.56877
G1 X117.242 Y132.386 E38.63092
G1 X116.341 Y132.156 E38.69307
G1 X115.425 Y131.990 E38.75522
G1 X114.500 Y131.891 E38.81737
G1 X113.585 Y131.858 E38.87852
G1 X45.815 Y131.858 E43.40595
G1 X46.330 Y131.388 E43.45252
G1 X46.621 Y130.974 E43.48633
G1 X46.811 Y130.522 E43.51912
G1 X46.890 Y130.163 E43.54369
G1 X46.908 Y129.672 E43.57649
G1 X46.820 Y129.189 E43.60928
G1 X46.690 Y128.845 E43.63385
G1 X46.437 Y128.425 E43.66664
G1 X46.099 Y128.068 E43.69943
G1 X45.802 Y127.851 E43.72400
G1 X45.361 Y127.637 E43.75680
G1 X44.870 Y127.520 E43.79050
G1 X44.399 Y127.509 E43.82200
G1 X44.018 Y127.569 E43.84775
G1 X43.567 Y127.730 E43.87974
G1 X43.248 Y127.914 E43.90431
G1 X42.874 Y128.231 E43.93710
G1 X42.775 Y128.362 E43.94807
G1 X42.556 Y128.288 E43.96349
G1 X42.556 Y71.384 E47.76502
G1 X42.995 Y71.882 E47.80936
G1 X43.403 Y72.181 E47.84317
G1 X43.852 Y72.379 E47.87596
G1 X44.210 Y72.465 E47.90053
G1 X44.700 Y72.491 E47.93332
G1 X45.200 Y72.409 E47.96713
G1 X45.656 Y72.228 E47.99993
G1 X45.967 Y72.032 E48.02450
G1 X46.330 Y71.701 E48.05729
G1 X46.621 Y71.287 E48.09110
G1 X46.811 Y70.835 E48.12389
G1 X46.890 Y70.476 E48.14846
G1 X46.908 Y69.985 E48.18126
G1 X46.820 Y69.502 E48.21405
G1 X46.690 Y69.158 E48.23862
G1 X46.437 Y68.738 E48.27141
G1 X45.868 Y68.137 E48.32671
G1 X113.590 Y68.137 E52.85096
G1 X114.505 Y68.104 E52.91211
G1 X115.430 Y68.004 E52.97426
G1 X116.346 Y67.839 E53.03641
G1 X117.247 Y67.609 E53.09856
G1 X118.130 Y67.315 E53.16071
G1 X118.989 Y66.959 E53.22286
G1 X119.821 Y66.543 E53.28501
G1 X120.621 Y66.068 E53.34716
G1 X121.385 Y65.538 E53.40930
G1 X122.110 Y64.954 E53.47145
G1 X122.780 Y64.330 E53.53261
G1 X129.105 Y58.005 E54.13017
G1 X129.077 Y58.644 E54.17287
G1 X129.141 Y59.099 E54.20356
G1 X129.262 Y59.465 E54.22932
G1 X129.501 Y59.897 E54.26232
G1 X129.835 Y60.277 E54.29613
G1 X130.242 Y60.575 E54.32984
G1 X130.673 Y60.767 E54.36134
G1 X131.047 Y60.859 E54.38709
G1 X131.541 Y60.886 E54.42010
G1 X132.039 Y60.804 E54.45380
G1 X132.477 Y60.632 E54.48530
G1 X132.805 Y60.429 E54.51105
G1 X133.169 Y60.097 E54.54395
G1 X133.442 Y59.713 E54.57545
G1 X133.607 Y59.364 E54.60120
G1 X133.730 Y58.886 E54.63421
G1 X133.748 Y58.380 E54.66802
G1 X133.658 Y57.884 E54.70172
G1 X133.477 Y57.448 E54.73322
G1 X133.269 Y57.124 E54.75898
G1 X132.708 Y56.532 E54.81346
G1 X154.206 Y56.533 E56.24964
G1 X153.727 Y56.939 E56.29161
G1 X153.421 Y57.342 E56.32542
G1 X153.215 Y57.788 E56.35821
G1 X153.123 Y58.144 E56.38278
G1 X153.087 Y58.634 E56.41557
G1 X153.160 Y59.133 E56.44928
G1 X153.325 Y59.574 E56.48077
G1 X153.521 Y59.906 E56.50653
G1 X153.848 Y60.277 E56.53954
G1 X154.255 Y60.575 E56.57324
G1 X154.686 Y60.767 E56.60474
G1 X155.060 Y60.859 E56.63049
G1 X155.553 Y60.886 E56.66350
G1 X156.051 Y60.804 E56.69720
G1 X156.490 Y60.632 E56.72870
G1 X156.818 Y60.429 E56.75446
G1 X157.389 Y59.908 E56.80608
G1 E54.80608 F2400.00000
G92 E0
G1 X133.197 Y58.808 F7800.000
G1 E2.00000 F2400.00000
G1 X133.101 Y59.181 E2.02574 F1500.000
G1 X132.978 Y59.441 E2.04495
G1 X132.766 Y59.740 E2.06945
G1 X132.482 Y60.000 E2.09515
G1 X132.237 Y60.151 E2.11436
G1 X131.895 Y60.285 E2.13886
G1 X131.512 Y60.348 E2.16485
G1 X131.127 Y60.327 E2.19059
G1 X130.848 Y60.258 E2.20980
G1 X130.513 Y60.109 E2.23430
G1 X130.199 Y59.879 E2.26029
G1 X129.941 Y59.587 E2.28632
G1 X129.755 Y59.250 E2.31206
G1 X129.665 Y58.977 E2.33127
G1 X129.614 Y58.618 E2.35548
G1 X129.627 Y58.331 E2.37465
G1 X129.707 Y57.973 E2.39916
G1 X129.870 Y57.620 E2.42514
G1 X130.106 Y57.310 E2.45117
G1 X130.399 Y57.061 E2.47684
G1 X130.633 Y56.926 E2.49493
G1 X130.991 Y56.798 E2.52030
G1 X131.275 Y56.754 E2.53951 F1500.000
G1 X131.642 Y56.762 E2.56401
G1 X132.020 Y56.852 E2.59000
G1 X132.366 Y57.020 E2.61566
G1 X132.584 Y57.180 E2.63375
G1 X132.845 Y57.455 E2.65913
G1 X133.001 Y57.698 E2.67834
G1 X133.141 Y58.036 E2.70284
G1 X133.211 Y58.419 E2.72883
G1 X133.200 Y58.733 E2.74985
G1 X133.491 Y59.058 F7800.000
G1 E0.74985 F2400.00000
G92 E0
G1 X46.371 Y70.024 F7800.000
G1 E2.00000 F2400.00000
G1 X46.357 Y70.408 E2.02566 F1500.000
G1 X46.298 Y70.672 E2.04375
G1 X46.150 Y71.027 E2.06942
G1 X45.925 Y71.345 E2.09544
G1 X45.642 Y71.604 E2.12111
